X:20
T:Earl Grey
C:Trad?
N:from Pete Coe
N:abc by Simon Garbutt
N:originally a strathspey, apparently
M:4/4
K:G
L:1/8
G3 A G2 D2 | E2 G2 D2 B2 | c2 A2 cBAG | F2 A2 A2 BA | G3 A G2 D2 | E2 G2 D2 B2 |
c2 e2 d2 ef |1 g2 G2 G4 :|2 g2 G2 G2 ef || g2 G2 f2 G2 | e2 G2 d2 G2 | c2 A2 cBAG |
F2 A2 A2 ef | g2 G2 f2 G2 | e2 G2 d2 G2 | c2 e2 d2 ef |1 g2 G2 G2 ef :|2 g2 G2 G4 |]

